packages/ffe-icons/icons/filled/md/note_stack_add.svg

<svg xmlns="http://www.w3.org/2000/svg" height="24" viewBox="0 -960 960 960" width="24"><path d="M300.001-172.309v-415.998q0-29.947 21.5-50.819 21.5-20.873 51.423-20.873h414.767q29.827 0 51.067 21.241 21.241 21.24 21.241 51.067v269.306q0 14.632-5.616 27.893-5.615 13.261-15.461 23.107L692.615-121.078q-9.846 9.846-23.107 15.461-13.261 5.616-27.893 5.616H372.309q-29.827 0-51.067-21.241-21.241-21.24-21.241-51.067Zm-199-530.767q-5.615-29.923 11.635-54.005 17.25-24.081 47.211-29.533l409.383-72.385q29.923-5.615 54.004 11.635t29.534 47.211l9.231 52.462h-289.69q-66 0-113 47t-47 113v346.612q-14.846-7.846-25.385-21.499-10.538-13.654-13.538-31.116l-72.385-409.382Zm449 353.075V-260q0 12.75 8.628 21.374 8.629 8.625 21.384 8.625 12.756 0 21.371-8.625 8.615-8.624 8.615-21.374v-90.001H700q12.75 0 21.375-8.628 8.624-8.629 8.624-21.384 0-12.756-8.624-21.371-8.625-8.615-21.375-8.615h-90.001V-500q0-12.75-8.628-21.375-8.629-8.624-21.384-8.624-12.756 0-21.371 8.624-8.615 8.625-8.615 21.375v90.001H460q-12.75 0-21.374 8.628-8.625 8.629-8.625 21.384 0 12.756 8.625 21.371 8.624 8.615 21.374 8.615h90.001Z"/></svg>

<svg xmlns="http://www.w3.org/2000/svg" height="24" viewBox="0 -960 960 960" width="24"><path d="M300-172.31v-416q0-29.94 21.5-50.82Q343-660 372.92-660h414.77q29.83 0 51.07 21.24Q860-617.52 860-587.69v269.3q0 14.64-5.62 27.9-5.61 13.26-15.46 23.1L692.61-121.08q-9.84 9.85-23.1 15.46-13.26 5.62-27.9 5.62h-269.3q-29.83 0-51.07-21.24Q300-142.48 300-172.31ZM101-703.08q-5.61-29.92 11.64-54t47.21-29.53L569.23-859q29.92-5.61 54 11.64 24.09 17.25 29.54 47.21l9.23 52.46H372.31q-66 0-113 47t-47 113v346.61q-14.85-7.84-25.39-21.5-10.53-13.65-13.53-31.11L101-703.08ZM550-350v90q0 12.75 8.63 21.37 8.63 8.63 21.38 8.63 12.76 0 21.37-8.63Q610-247.25 610-260v-90h90q12.75 0 21.37-8.63 8.63-8.63 8.63-21.38 0-12.76-8.63-21.37Q712.75-410 700-410h-90v-90q0-12.75-8.63-21.37-8.63-8.63-21.38-8.63-12.76 0-21.37 8.63Q550-512.75 550-500v90h-90q-12.75 0-21.37 8.63-8.63 8.63-8.63 21.38 0 12.76 8.63 21.37Q447.25-350 460-350h90Z"/></svg>
